X: 17764
T: Hommage Aux Ancetres
R: reel
M: 4/4
K: Bdorian
"F#m"cffc f2 (3faf|cfad' b2 a2|"Bm"b3 b b4|"D"c'bc'd' c'baf|
"F#m"cffc f2 ff|cfad' b2 a2|"C#m"e'3 c' c'4|"Bm"c'bc'd' c'baf:|
|:"F#m"cffc f2 c2|"A"ecef ec (3ABc|"Bm"d2 cd (3BcB A2|"D"cd (3cBA BA F2|
"F#m"cffc f2 c2|"A"ecef ec (3ABc|d2 cd (3BcB (3ABA|1 "D"FBAF BA F2:|2 "Bm"FBAF BAFD||

